public/illustrations/_elections.svg

<svg width="170" height="269" viewBox="0 0 170 269" fill="none" xmlns="http://www.w3.org/2000/svg">
<path d="M137.835 31.7375C145.127 31.7233 152.093 31.6949 159.2 31.6099C160.914 31.6099 162.627 31.6242 164.198 31.695C165.147 31.7375 166.081 32.0913 166.945 32.6293C167.681 33.224 168.22 34.0738 168.489 35.0366C169.338 37.5993 169.735 40.2184 169.876 42.951C169.437 68.9179 168.814 94.8142 168.191 120.71C167.2 166.173 166.152 211.509 165.289 256.902C165.345 258.742 165.643 260.47 166.082 262.126C166.846 265.199 166.053 267.252 163.108 268.271C161.947 268.795 160.616 268.922 159.342 268.88C123.351 268.597 87.2461 268.37 51.1982 267.96C44.9825 267.96 38.9086 267.889 32.7637 267.705C30.1019 267.662 27.4542 267.294 24.7499 266.799C21.5359 266.218 20.389 265.029 20.0916 261.602C19.3271 254.028 18.6192 246.58 17.8546 239.019C12.2619 176.495 6.6126 113.843 1.00578 51.3048C0.65181 47.7368 0.41105 44.1121 0.0570837 40.5583C-0.254407 37.4434 0.66601 35.0081 3.88003 33.8755L4.26234 33.7054C8.11349 29.4861 13.692 29.4722 18.5767 27.9006C29.1532 24.8565 39.8571 22.0673 50.5044 19.1365C62.1711 16.0641 73.8238 13.0057 85.4339 9.80584C95.5573 7.11571 105.752 4.2414 115.875 1.55127C117.418 1.16899 118.891 0.659471 120.292 0.333823C121.581 -0.24668 123.096 0.0079954 124.399 0.503546C125.701 0.999097 126.805 2.06101 127.386 3.34944L128.958 6.8324C131.846 15.0019 134.763 22.846 137.708 31.1429L137.807 31.7233L137.835 31.7375ZM10.0107 42.3139C16.5378 114.509 22.9516 186.448 29.4363 257.893C30.3849 257.935 30.7531 258.077 31.3902 258.105L153.792 258.969C154.047 258.856 154.372 258.87 154.5 258.813L154.882 258.643C155.137 258.53 155.208 258.346 155.406 258.091L160.036 41.4784L10.1239 42.2572L9.99649 42.3139H10.0107ZM119.995 11.0375L44.1188 31.4827L44.4021 32.134C44.2747 32.1906 127.244 31.6808 127.244 31.6808C124.866 24.6723 122.487 17.9896 120.108 10.9811L119.981 11.0375H119.995Z" fill="#102185"/>
<path d="M34.8019 57.4067C36.2036 57.0811 37.5488 56.9539 38.9363 56.9397C58.3337 56.9114 77.7169 56.8972 96.9868 56.9397C101.164 56.9256 103.061 58.7096 103.132 63.028C103.316 70.702 103.387 78.4325 103.387 86.0357C103.528 103.975 103.684 121.914 103.825 139.853C103.854 140.617 103.896 141.382 103.797 142.203C103.401 147.187 100.569 149.862 95.7408 150.174C88.7606 150.514 81.8936 150.811 74.9133 151.151C65.9651 151.604 56.946 151.93 47.9977 152.383C46.4686 152.453 44.9538 152.51 43.368 152.439C37.9877 152.213 35.9063 150.358 35.6939 145.02C35.1984 137.021 34.7595 129.134 34.2781 121.135C33.2445 103.281 32.1401 85.2992 31.0498 67.3177C30.9791 66.1143 30.9649 64.7126 30.8941 63.5092C30.7525 62.1782 31.1208 60.9183 31.8712 59.814C32.6074 58.7096 33.5985 57.789 34.8161 57.4067H34.8019ZM56.3797 98.1552L55.1054 95.3093C54.1709 93.2422 53.7604 90.9485 53.8029 88.5982C53.8454 86.2478 54.3692 83.9966 55.2895 81.8728C56.139 79.6216 57.6824 77.5404 59.4664 75.9546C61.3778 74.3264 63.5724 73.3354 65.9935 72.8681C68.4146 72.4009 70.8215 72.5564 73.2002 73.3493C75.5788 74.1422 77.547 75.4307 79.3168 77.2713C84.1874 82.2268 85.2775 88.1027 83.6068 94.7431C83.3094 95.805 83.0121 96.8669 82.7289 97.6173L93.7444 104.158L93.5037 67.0063L40.9044 67.0488C41.7256 80.9667 42.6176 94.6864 43.3822 108.477L56.4081 98.4245V98.1127L56.3797 98.1552ZM45.3642 142.372C47.0208 142.245 48.734 142.26 50.3056 142.33C51.2542 142.373 52.2737 142.217 52.9958 141.75C53.9019 141.339 54.4967 140.603 54.8506 139.668C57.4417 135.407 60.4573 131.414 63.2183 127.209L77.2495 106.622C76.3151 106.268 75.4372 106.042 74.5594 105.815C70.2693 105.263 66.0077 105.773 62.1424 107.203C55.4453 109.907 49.9659 115.004 46.7236 121.588C45.9024 123.202 44.628 124.859 44.6846 126.388C44.5855 131.711 45.152 136.738 45.4776 142.33L45.3501 142.387L45.3642 142.372ZM65.4838 141.566L93.2914 140.235C93.5604 139.796 93.6312 139.612 93.6312 139.612C93.6171 135.435 93.7302 131.187 93.7019 127.011C93.7019 122.867 92.607 119.167 90.4172 115.91C89.0296 114.211 87.6987 112.626 86.1129 111.167L65.3421 141.622L65.4696 141.566H65.4838ZM63.9687 90.8637C65.597 94.4741 67.5651 95.7626 70.2411 95.4936C72.2799 95.1962 74.0213 92.86 74.2054 90.1416C74.2479 89.1929 74.2197 88.1167 73.9507 87.154C73.6816 85.8797 72.9028 84.832 71.9259 84.025C70.9489 83.2179 69.7597 82.6657 68.4996 82.6233C67.1687 82.7649 66.0642 83.4163 65.0165 84.195C64.082 85.2286 63.6573 86.3612 63.4732 87.678C63.4874 88.754 63.5157 89.8301 63.6573 90.8495H63.9687V90.8637Z" fill="#102185"/>
<path d="M131.252 191.177C131.535 191.829 131.832 192.466 131.677 193.159C131.705 193.924 131.549 194.618 131.337 195.17C130.997 195.793 130.657 196.416 130.063 196.827C129.468 197.251 128.887 197.662 128.307 197.775C126.905 198.101 125.56 198.228 124.173 198.242C99.0409 198.979 73.8667 199.587 48.7351 200.324C47.5316 200.394 46.13 200.409 44.8698 200.352C44.2327 200.324 43.6098 200.295 42.9868 199.956C42.4205 199.743 41.9391 199.347 41.4436 198.936C40.948 198.54 40.6647 197.888 40.424 197.379C40.1833 196.869 39.9001 196.217 40.0559 195.524C40.0842 194.887 40.1125 194.264 40.4523 193.641C40.6647 193.075 41.0611 192.593 41.4717 192.097C41.8823 191.602 42.3922 191.375 43.0293 191.078C43.539 190.852 44.2469 190.682 44.884 190.71C47.56 190.441 50.3492 190.427 52.9544 190.342C76.4294 189.733 99.9046 189.11 123.323 188.359C124.711 188.359 126.112 188.359 127.571 188.473C128.392 188.572 129.142 188.855 129.765 189.195C130.445 189.662 130.997 190.2 131.337 190.965L131.266 191.149L131.252 191.177Z" fill="#102185"/>
<path d="M128.505 179.524C127.429 179.538 125.701 179.85 124.172 179.921L76.0894 181.039C66.5748 181.28 57.1876 181.464 47.6164 181.577C46.2288 181.577 44.827 181.577 43.3121 181.336C42.3068 181.167 41.4431 180.629 40.7776 179.836C40.1122 179.043 39.6449 178.009 39.6874 177.061C39.6024 176.169 39.8998 175.107 40.4945 174.37C41.0325 173.507 41.8821 172.969 42.8449 172.7C44.0059 172.176 45.3367 172.048 46.611 172.091C72.4222 171.51 98.3751 170.873 124.243 170.42C125.772 170.349 127.273 170.604 128.788 170.859C129.666 171.086 130.473 171.496 131.011 172.346C131.62 173.011 131.889 173.96 131.988 174.852C132.002 175.928 131.648 176.862 130.983 177.783C130.445 178.646 129.524 179.369 128.618 179.779L128.505 179.524Z" fill="#102185"/>
<path d="M48.3661 235.409C49.3855 235.267 50.5324 235.055 51.6085 235.041C58.5745 235.012 65.7387 235.04 72.7756 235.154C79.3594 235.295 85.8159 235.508 92.3996 235.649C93.0368 235.678 93.6597 235.706 94.2969 235.734C95.4295 235.848 96.5622 236.272 97.4117 237.136C98.2612 238 98.7284 239.033 98.7992 240.237C98.87 241.44 98.4453 242.573 97.7798 243.493C97.1144 244.414 96.01 245.065 94.9056 245.404C93.9428 245.688 92.8668 245.702 91.9181 245.66C87.1042 245.66 82.4176 245.589 77.7311 245.518C69.1227 245.348 60.5143 245.192 52.0191 244.966C50.759 244.909 49.4847 244.867 48.2387 244.498C47.2334 244.329 46.4973 243.734 45.8318 242.941C45.1663 242.148 44.8832 241.185 44.7982 240.293C44.6283 238.198 45.7893 236.272 48.4228 235.253L48.3519 235.437L48.3661 235.409Z" fill="#102185"/>
<path d="M96.776 221.874C97.0025 222.383 97.2431 222.907 97.2148 223.544C97.3139 224.125 97.2856 224.748 97.0732 225.314C96.8609 225.88 96.6485 226.433 96.1812 226.801C95.7848 227.296 95.3176 227.65 94.8079 227.891C93.6469 228.415 92.3726 228.684 91.0983 228.627C77.775 229.024 64.4518 229.434 51.1285 229.831C49.925 229.901 48.8488 229.93 47.6453 229.689C46.6401 229.519 45.7764 228.981 45.0544 228.061C44.3889 227.268 43.9783 226.376 43.9641 225.286C43.9499 224.21 44.2473 223.148 44.9128 222.213C45.5783 221.279 46.5552 220.698 47.5179 220.415C48.6082 220.075 49.8117 220.005 50.8877 219.99C63.3898 219.495 75.9628 219.127 88.5215 218.759C89.9091 218.759 91.3674 218.872 92.6983 219.056C93.5195 219.155 94.2698 219.438 94.9494 219.905C95.6291 220.373 96.1105 221.095 96.4503 221.874H96.776Z" fill="#102185"/>
<path d="M144.15 230.227C143.13 230.368 141.984 230.581 140.908 230.595C132.597 230.765 124.158 230.977 115.847 231.147C114.643 231.218 113.496 231.119 112.434 230.822C111.557 230.595 110.693 230.057 110.084 229.392C109.419 228.599 109.008 227.707 108.923 226.815C108.782 225.795 109.079 224.733 109.617 223.87C110.155 223.006 110.948 222.34 112.038 222C113.199 221.477 114.53 221.35 115.748 221.265C124.059 221.095 132.497 220.882 140.809 220.712C142.012 220.641 143.159 220.74 144.221 221.038C145.226 221.208 146.09 221.746 146.699 222.411C147.364 223.204 147.775 224.096 147.859 224.988C148.029 227.084 146.996 228.938 144.291 230.17L144.164 230.227H144.15Z" fill="#102185"/>
<path d="M147.874 69.6116C148.1 70.1213 148.398 70.7726 148.369 71.4097C148.341 72.0469 148.313 72.6699 148.1 73.2363C147.888 73.8026 147.492 74.2838 147.081 74.7793C146.628 75.1474 146.161 75.5014 145.523 75.7987C144.235 76.3792 142.763 76.5775 141.375 76.5775C134.664 76.4925 128.08 76.351 121.369 76.2519C120.293 76.266 119.104 76.0252 117.9 75.7987C116.838 75.5014 115.918 74.8361 115.323 73.8591C114.601 72.9388 114.389 71.7918 114.431 70.8432C114.544 69.7105 115.026 68.7196 115.762 67.9126C116.498 67.1056 117.461 66.525 118.679 66.4542L119.061 66.2842C127.231 66.4965 135.471 66.5108 143.626 66.7232C144.575 66.7656 145.382 67.1764 146.189 67.587C146.925 68.1816 147.407 68.9037 147.746 69.6824L147.874 69.6257V69.6116Z" fill="#102185"/>
<path d="M146.981 92.5201C147.264 93.1714 147.561 93.8086 147.462 94.6298C147.491 95.3943 147.335 96.088 146.995 96.6969C146.655 97.3057 146.117 97.8722 145.537 98.2828L143.597 99.1466C142.45 99.359 141.374 99.3729 140.227 99.2596C134.082 99.0756 127.895 98.7499 121.878 98.5092C120.802 98.5234 119.612 98.2827 118.465 98.1836C117.318 98.0845 116.271 97.4617 115.421 96.598C114.699 95.6777 114.232 94.6441 114.289 93.384C114.345 92.1238 114.827 91.1185 115.619 90.1416C116.483 89.2921 117.517 88.8249 118.72 88.7541C119.103 88.5842 119.74 88.6123 120.193 88.5557C127.654 88.9238 135.059 89.1645 142.393 89.6034C143.47 89.5892 144.347 89.8158 145.211 90.3538C146.075 90.8919 146.74 91.6849 147.151 92.591L146.967 92.5201H146.981Z" fill="#102185"/>
<path d="M142.508 122.621C141.489 122.763 140.413 122.791 139.464 122.749C132.569 122.267 125.688 121.8 118.807 121.319C117.858 121.276 116.98 121.05 116.23 120.766C115.296 120.412 114.375 119.733 113.837 118.898C113.299 118.062 112.974 116.958 113.073 115.825C113.243 114.82 113.54 113.758 114.333 113.093C115.069 112.3 116.103 111.832 117.122 111.691C118.269 111.478 119.402 111.592 120.548 111.705C126.807 112.158 133.008 112.469 139.309 113.05C140.767 113.177 142.14 113.489 143.33 114.041C144.137 114.452 144.873 115.061 145.354 115.769C145.708 116.547 146.105 117.453 145.878 118.331C145.836 119.28 145.482 120.214 144.887 120.951C144.292 121.687 143.5 122.352 142.593 122.763L142.537 122.635L142.508 122.621Z" fill="#102185"/>
</svg>

<svg xmlns="http://www.w3.org/2000/svg" width="170" height="269" fill="none" viewBox="0 0 170 269"><path fill="#102185" d="M137.835 31.738c7.292-.015 14.258-.043 21.365-.128 1.714 0 3.427.014 4.998.085.949.043 1.883.396 2.747.934.736.595 1.275 1.445 1.544 2.408.849 2.562 1.246 5.181 1.387 7.914-.439 25.967-1.062 51.863-1.685 77.759-.991 45.463-2.039 90.799-2.902 136.192.056 1.84.354 3.568.793 5.224.764 3.073-.029 5.126-2.974 6.145-1.161.524-2.492.651-3.766.609-35.991-.283-72.096-.51-108.144-.92-6.215 0-12.29-.071-18.434-.255-2.662-.043-5.31-.411-8.014-.906-3.214-.581-4.361-1.77-4.658-5.197-.765-7.574-1.473-15.022-2.237-22.583-5.593-62.524-11.242-125.176-16.85-187.714-.353-3.568-.594-7.193-.948-10.747-.311-3.115.609-5.55 3.823-6.682l.382-.17c3.851-4.22 9.43-4.234 14.315-5.805 10.576-3.044 21.28-5.834 31.927-8.764 11.667-3.073 23.32-6.131 34.93-9.331 10.123-2.69 20.318-5.565 30.441-8.255 1.543-.382 3.016-.892 4.417-1.217 1.289-.58 2.804-.326 4.107.17 1.302.495 2.406 1.557 2.987 2.845l1.572 3.483c2.888 8.17 5.805 16.014 8.75 24.31l.099.581zM10.011 42.314c6.527 72.195 12.94 144.134 19.425 215.579.949.042 1.317.184 1.954.212l122.402.864c.255-.113.58-.099.708-.156l.382-.17c.255-.113.326-.297.524-.552l4.63-216.613-149.912.78-.128.056zm109.984-31.276L44.119 31.483l.283.651c-.127.057 82.842-.453 82.842-.453-2.378-7.009-4.757-13.691-7.136-20.7l-.127.056z"/><path fill="#102185" d="M34.802 57.407c1.402-.326 2.747-.453 4.134-.467 19.398-.029 38.78-.043 58.05 0 4.178-.014 6.075 1.77 6.146 6.088.184 7.674.255 15.405.255 23.008.141 17.939.297 35.878.438 53.817.029.764.071 1.529-.028 2.35-.396 4.984-3.228 7.659-8.056 7.971-6.98.34-13.847.637-20.828.977-8.948.453-17.967.779-26.915 1.232-1.53.07-3.044.127-4.63.056-5.38-.226-7.462-2.081-7.674-7.419-.496-7.999-.934-15.886-1.416-23.885-1.033-17.854-2.138-35.836-3.228-53.817-.07-1.204-.085-2.605-.156-3.809-.141-1.33.227-2.59.977-3.695.736-1.104 1.728-2.025 2.945-2.407zM56.38 98.155l-1.275-2.846c-.934-2.067-1.345-4.36-1.302-6.71.042-2.351.566-4.602 1.486-6.726.85-2.251 2.393-4.333 4.177-5.918 1.912-1.629 4.106-2.62 6.527-3.087a14.04 14.04 0 0 1 7.207.481c2.379.793 4.347 2.082 6.117 3.922 4.87 4.956 5.96 10.832 4.29 17.472-.298 1.062-.595 2.124-.878 2.874l11.015 6.541-.24-37.152-52.6.043c.822 13.918 1.714 27.637 2.478 41.428l13.026-10.053v-.311zm-11.016 44.217c1.657-.127 3.37-.112 4.942-.042.948.043 1.968-.113 2.69-.58.906-.411 1.5-1.147 1.855-2.082 2.59-4.261 5.606-8.254 8.367-12.459l14.031-20.587c-.934-.354-1.812-.58-2.69-.807a26.2 26.2 0 0 0-12.417 1.388c-6.697 2.704-12.176 7.801-15.418 14.385-.822 1.614-2.096 3.271-2.04 4.8-.098 5.323.468 10.35.794 15.942l-.128.057zm20.12-.806 27.807-1.331c.27-.439.34-.623.34-.623-.014-4.177.1-8.425.07-12.601q0-6.216-3.284-11.101c-1.387-1.699-2.718-3.284-4.304-4.743l-20.77 30.455.127-.056zm-1.515-50.702c1.628 3.61 3.596 4.899 6.272 4.63 2.039-.298 3.78-2.634 3.964-5.352.043-.95.015-2.025-.254-2.988-.27-1.274-1.048-2.322-2.025-3.129s-2.166-1.36-3.426-1.402c-1.331.142-2.436.793-3.484 1.572-.934 1.034-1.359 2.166-1.543 3.483.014 1.076.043 2.152.184 3.172h.312zM131.252 191.177c.283.652.58 1.289.425 1.982a5.1 5.1 0 0 1-.34 2.011c-.34.623-.68 1.246-1.274 1.657-.595.424-1.176.835-1.756.948-1.402.326-2.747.453-4.134.467-25.132.737-50.306 1.345-75.438 2.082a39 39 0 0 1-3.865.028c-.637-.028-1.26-.057-1.883-.396-.567-.213-1.048-.609-1.543-1.02-.496-.396-.78-1.048-1.02-1.557-.24-.51-.524-1.162-.368-1.855.028-.637.056-1.26.396-1.883.213-.566.61-1.048 1.02-1.544.41-.495.92-.722 1.557-1.019.51-.226 1.218-.396 1.855-.368 2.676-.269 5.465-.283 8.07-.368 23.475-.609 46.95-1.232 70.369-1.983 1.388 0 2.789 0 4.248.114a6.2 6.2 0 0 1 2.194.722c.68.467 1.232 1.005 1.572 1.77l-.071.184zM128.505 179.524c-1.076.014-2.804.326-4.333.397l-48.083 1.118c-9.514.241-18.901.425-28.473.538-1.387 0-2.789 0-4.304-.241-1.005-.169-1.869-.707-2.534-1.5-.666-.793-1.133-1.827-1.09-2.775-.086-.892.212-1.954.806-2.691.538-.863 1.388-1.401 2.35-1.67 1.162-.524 2.493-.652 3.767-.609 25.811-.581 51.764-1.218 77.632-1.671 1.529-.071 3.03.184 4.545.439.878.227 1.685.637 2.223 1.487.609.665.878 1.614.977 2.506.014 1.076-.34 2.01-1.005 2.931-.538.863-1.459 1.586-2.365 1.996zM48.366 235.409c1.02-.142 2.166-.354 3.242-.368 6.967-.029 14.13-.001 21.168.113 6.583.141 13.04.354 19.624.495l1.897.085c1.133.114 2.265.538 3.115 1.402s1.316 1.897 1.387 3.101-.354 2.336-1.02 3.256c-.665.921-1.769 1.572-2.873 1.911-.963.284-2.04.298-2.988.256-4.814 0-9.5-.071-14.187-.142-8.608-.17-17.217-.326-25.712-.552-1.26-.057-2.534-.099-3.78-.468-1.006-.169-1.742-.764-2.407-1.557-.666-.793-.949-1.756-1.034-2.648-.17-2.095.991-4.021 3.625-5.04l-.071.184zM96.776 221.874c.227.509.467 1.033.439 1.67.099.581.07 1.204-.142 1.77s-.424 1.119-.892 1.487a3.85 3.85 0 0 1-1.373 1.09 8.2 8.2 0 0 1-3.71.736c-13.323.397-26.646.807-39.97 1.204-1.203.07-2.28.099-3.483-.142-1.005-.17-1.869-.708-2.59-1.628-.666-.793-1.077-1.685-1.09-2.775a5.1 5.1 0 0 1 .948-3.073c.665-.934 1.642-1.515 2.605-1.798 1.09-.34 2.294-.41 3.37-.425 12.502-.495 25.075-.863 37.634-1.231 1.387 0 2.845.113 4.176.297a4.97 4.97 0 0 1 2.251.849c.68.468 1.162 1.19 1.501 1.969zM144.15 230.227c-1.02.141-2.166.354-3.242.368-8.311.17-16.75.382-25.061.552-1.204.071-2.351-.028-3.413-.325-.877-.227-1.741-.765-2.35-1.43-.665-.793-1.076-1.685-1.161-2.577-.141-1.02.156-2.082.694-2.945a4.29 4.29 0 0 1 2.421-1.87c1.161-.523 2.492-.65 3.71-.735 8.311-.17 16.749-.383 25.061-.553 1.203-.071 2.35.028 3.412.326 1.005.17 1.869.708 2.478 1.373.665.793 1.076 1.685 1.16 2.577.17 2.096-.863 3.95-3.568 5.182l-.127.057zM147.874 69.612c.226.51.524 1.16.495 1.798-.028.637-.056 1.26-.269 1.826-.212.567-.608 1.048-1.019 1.543-.453.368-.92.722-1.558 1.02-1.288.58-2.76.778-4.148.778-6.711-.084-13.295-.226-20.006-.325-1.076.014-2.265-.227-3.469-.453a4.36 4.36 0 0 1-2.577-1.94c-.722-.92-.934-2.067-.892-3.016.113-1.133.595-2.123 1.331-2.93s1.699-1.388 2.917-1.459l.382-.17c8.17.212 16.41.227 24.565.44.949.042 1.756.452 2.563.863.736.595 1.218 1.317 1.557 2.095l.128-.056zM146.981 92.52c.283.651.58 1.289.481 2.11.029.764-.127 1.458-.467 2.067s-.878 1.175-1.458 1.586l-1.94.864c-1.147.212-2.223.226-3.37.113-6.145-.184-12.332-.51-18.349-.75-1.076.013-2.266-.227-3.413-.326-1.147-.1-2.194-.722-3.044-1.586-.722-.92-1.189-1.954-1.132-3.214.056-1.26.538-2.266 1.33-3.242.864-.85 1.898-1.317 3.101-1.388.383-.17 1.02-.142 1.473-.198 7.461.368 14.866.609 22.2 1.047 1.077-.014 1.954.213 2.818.75a5.1 5.1 0 0 1 1.94 2.238l-.184-.07zM142.508 122.621c-1.019.142-2.095.17-3.044.128-6.895-.482-13.776-.949-20.657-1.43a8.4 8.4 0 0 1-2.577-.553c-.934-.354-1.855-1.033-2.393-1.868a4.97 4.97 0 0 1-.764-3.073c.17-1.005.467-2.067 1.26-2.732.736-.793 1.77-1.261 2.789-1.402 1.147-.213 2.28-.099 3.426.014 6.259.453 12.46.764 18.761 1.345 1.458.127 2.831.439 4.021.991.807.411 1.543 1.02 2.024 1.728.354.778.751 1.684.524 2.562a4.53 4.53 0 0 1-.991 2.62c-.595.736-1.387 1.401-2.294 1.812l-.056-.128z"/></svg>
